src/images/Illustrator.svg

<svg width="97" height="95" viewBox="0 0 97 95" fill="none" xmlns="http://www.w3.org/2000/svg">
<g clip-path="url(#clip0_24_973)">
<path d="M79.8228 0H17.1772C7.6905 0 0 7.72512 0 17.2545V77.7455C0 87.2749 7.6905 95 17.1772 95H79.8228C89.3095 95 97 87.2749 97 77.7455V17.2545C97 7.72512 89.3095 0 79.8228 0Z" fill="url(#paint0_linear_24_973)"/>
<path d="M47.0047 57.0122H31.9725L28.9152 66.5549C28.8748 66.7297 28.7743 66.8846 28.6314 66.9923C28.4884 67.1 28.3122 67.1536 28.1338 67.1435H20.521C20.086 67.1435 19.9343 66.9035 20.0658 66.4234L33.0801 28.7671C33.2065 28.3746 33.3367 27.9301 33.4708 27.4335C33.6397 26.5609 33.7267 25.6743 33.7306 24.7854C33.7228 24.7328 33.7255 24.6792 33.7385 24.6277C33.7515 24.5762 33.7745 24.5278 33.8063 24.4852C33.838 24.4427 33.8779 24.4069 33.9235 24.38C33.9691 24.353 34.0195 24.3354 34.072 24.3282C34.1097 24.3224 34.148 24.3224 34.1858 24.3282H44.5315C44.835 24.3282 45.0076 24.4368 45.0531 24.654L59.8236 66.4882C59.9544 66.9225 59.8236 67.1416 59.4329 67.1416H50.9742C50.829 67.1578 50.6828 67.1204 50.5631 67.0362C50.4434 66.9521 50.3583 66.827 50.3237 66.6844L47.0047 57.0122ZM34.3166 48.7707H44.596C44.3368 47.8982 44.0334 46.9177 43.6857 45.8292C43.338 44.7408 42.9694 43.5748 42.58 42.3314L41.4079 38.607C41.0172 37.3648 40.6594 36.1659 40.3344 35.0101C40.0095 33.8544 39.7143 32.8002 39.4487 31.8476H39.3843C39.0177 33.6125 38.5613 35.3574 38.0168 37.0753C37.4099 39.0375 36.7916 41.0423 36.162 43.0897C35.5323 45.137 34.9172 47.0307 34.3166 48.7707Z" fill="white"/>
<path d="M68.6065 31.259C67.9429 31.2855 67.2811 31.1711 66.6644 30.9233C66.0477 30.6754 65.49 30.2997 65.0277 29.8206C64.5667 29.3206 64.2087 28.734 63.9743 28.0945C63.74 27.4549 63.6339 26.7751 63.6622 26.0942C63.6396 25.4214 63.7583 24.7514 64.0106 24.1278C64.2629 23.5041 64.643 22.9408 65.1263 22.4745C65.605 22.013 66.1698 21.6512 66.7882 21.4099C67.4067 21.1686 68.0665 21.0526 68.7298 21.0686C70.2913 21.0686 71.5165 21.5372 72.4054 22.4745C73.3071 23.4572 73.7844 24.7588 73.733 26.0942C73.7603 26.7779 73.6505 27.4601 73.4101 28.1003C73.1696 28.7405 72.8034 29.3255 72.3333 29.8206C71.8441 30.3051 71.2606 30.6828 70.6193 30.9303C69.978 31.1778 69.2928 31.2897 68.6065 31.259ZM64.1174 66.4882V35.2444C64.1174 34.852 64.29 34.6558 64.637 34.6558H72.6386C72.9838 34.6558 73.1583 34.8463 73.1583 35.2444V66.4882C73.1583 66.9225 72.9857 67.1416 72.6386 67.1416H64.7034C64.3127 67.1435 64.1174 66.9244 64.1174 66.4882Z" fill="white"/>
</g>
<defs>
<linearGradient id="paint0_linear_24_973" x1="1.30421e-05" y1="84.9304" x2="95.9125" y2="-7.05952" gradientUnits="userSpaceOnUse">
<stop offset="0.00833321" stop-color="#5C03BC"/>
<stop offset="0.53125" stop-color="#E536AB"/>
<stop offset="0.898958" stop-color="#F4E5F0"/>
</linearGradient>
<clipPath id="clip0_24_973">
<rect width="97" height="95" fill="white"/>
</clipPath>
</defs>
</svg>

<svg xmlns="http://www.w3.org/2000/svg" width="97" height="95" fill="none"><g clip-path="url(#a)"><path fill="url(#b)" d="M79.823 0H17.177C7.691 0 0 7.725 0 17.255v60.49C0 87.276 7.69 95 17.177 95h62.646C89.31 95 97 87.275 97 77.746V17.255C97 7.725 89.31 0 79.823 0Z"/><path fill="#fff" d="M47.005 57.012H31.972l-3.057 9.543a.763.763 0 0 1-.781.588H20.52c-.435 0-.587-.24-.455-.72L33.08 28.767c.127-.392.257-.837.39-1.334.17-.872.257-1.759.26-2.648a.403.403 0 0 1 .456-.457h10.346c.303 0 .476.109.521.326l14.77 41.834c.131.434 0 .654-.39.654h-8.459a.599.599 0 0 1-.65-.458l-3.32-9.672Zm-12.688-8.241h10.279c-.26-.873-.563-1.853-.91-2.942a643.982 643.982 0 0 1-1.106-3.498l-1.172-3.724c-.39-1.242-.749-2.441-1.074-3.597-.325-1.156-.62-2.21-.885-3.162h-.065a52.93 52.93 0 0 1-1.367 5.227c-.607 1.962-1.225 3.967-1.855 6.015a176.575 176.575 0 0 1-1.845 5.68ZM68.606 31.259a4.705 4.705 0 0 1-3.578-1.438 5.172 5.172 0 0 1-1.366-3.727 4.813 4.813 0 0 1 1.464-3.62 5.028 5.028 0 0 1 3.604-1.405c1.561 0 2.786.468 3.675 1.405a5.066 5.066 0 0 1 1.328 3.62 5.125 5.125 0 0 1-1.4 3.727 4.988 4.988 0 0 1-3.727 1.438Zm-4.489 35.23V35.243c0-.392.173-.588.52-.588h8.002c.345 0 .52.19.52.588v31.244c0 .434-.173.654-.52.654h-7.936c-.39.002-.586-.218-.586-.654Z"/></g><defs><linearGradient id="b" x1="0" x2="95.912" y1="84.93" y2="-7.06" gradientUnits="userSpaceOnUse"><stop offset=".008" stop-color="#5C03BC"/><stop offset=".531" stop-color="#E536AB"/><stop offset=".899" stop-color="#F4E5F0"/></linearGradient><clipPath id="a"><path fill="#fff" d="M0 0h97v95H0z"/></clipPath></defs></svg>
